!!!COM: Gonzaga, Francisca
!!!CDT: 1847/10/17-1935/02/28
!!!OTL: Tango Brasileiro
**kern	**kern
*part1	*part1
*staff2	*staff1
*I"Piano	*
*clefF4	*clefG2
*k[b-e-a-]	*k[b-e-a-]
*M2/4	*M2/4
=1	=1
*c:	*
8.CCL	8r
.	8G 8c 8e- 8g
16GGJk	.
8.E-L	8r
.	8G 8c 8e- 8g
16GGJk	.
=	=
8.DDL	8r
.	8G 8Bn 8f 8g
16GGJk	.
8.DL	8r
.	8G 8B 8f 8g
16GGJk	.
=	=
8.CCL	8r
.	8G 8c 8e- 8g
16GGJk	.
8.E-L	8r
.	8G 8c 8e- 8g
16GGJk	.
=	=
8.DDL	8r
.	8G 8Bn 8f 8g
16GGJk	.
8.DL	8r
.	8G 8B 8f 8g
16GGJk	.
=||	=||
8.CCL	4cc^ 4ccc
16cJk 16e- 16g	.
8cL 8e- 8g	(8ee-L
8cJ 8e- 8g	8aa-J)
=	=
16DKL	4gg^
8Bn 8f 8g	.
16BJk 16f 16g	.
8BL 8f 8g	4ff^
8BJ 8f 8g	.
!!linebreak:original
=	=
16CKL	16r
8c 8e- 8g	8ee-L
16cJk 16e- 16g	16ffJk
8cL 8e- 8g	(16ggLL
.	16dd
8cJ 8e- 8g	16ee-
.	16ccJJ)
=	=
16DKL	4ee-^
8Bn 8f 8g	.
16BJk 16f 16g	.
8BL 8f 8g	8dd
8BJ 8f 8g	8r
=	=
8.CL	4cc^ 4ccc
16cJk 16e- 16g	.
8cL 8e- 8g	8ee-L
.	(8qbb-/
8cJ 8e- 8g	8aa-J)
=	=
16DKL	4gg^
8Bn 8f 8g	.
16BJk 16f 16g	.
8BL 8f 8g	4ff
8BJ 8f 8g	.
=	=
16CKL	16r
8c 8e- 8g	8ee-L
16cJk 16e- 16g	16ffJk
8cL 8e- 8g	(16ggLL
.	16dd
8cJ 8e- 8g	16ee-
.	16ccJJ)
=	=
16DKL	4ee-^
8Bn 8f 8g	.
16BJk 16f 16g	.
8BL 8f 8g	8dd
8BJ 8f 8g	8r
!!linebreak:original
=	=
16CKL	16r
8B- 8c 8en	8ccL
16B-Jk 16c 16e	16ggJk
8B-L 8c 8e	8aa-L
8B-J 8c 8e	8ggJ
=	=
16CKL	4gg^
8A- 8c 8f	.
16A-Jk 16c 16f	.
8A-L 8c 8f	8ff
8A-J 8c 8f	8r
=	=
16GGKL	16r
8G 8Bn 8f	8.gg
16GJk 16B 16f	.
8GL 8B 8f	8dddL
8GJ 8B 8f	8eee-J
=	=
16GGKL	4ddd
8c 8e- 8g	.
16cJk 16e- 16g	.
8cL 8e- 8g	4ccc
8cJ 8e- 8g	.
=	=
16CKL	16r
8B- 8c 8en	8.cc^
16B-Jk 16c 16e	.
8B-L 8c 8e	16ggLL
.	16bb-
8B-J 8c 8e	16aa-
.	16eenJJ
=	=
16CKL	16gg^LL
8A- 8c 8f	16ff
.	16a-
16A-Jk 16c 16f	16ccJJ
8A-L 8c 8f	4ff^
8A-J 8c 8f	.
!!linebreak:original
=	=
16GGKL	16r
8G 8Bn 8f	8.gg^
16GJk 16B 16f	.
8GL 8B 8f	8dddL
.	(8qddd/
8GJ 8B 8f	8eee-^J)
=	=
.	(8qddd/
8.CCL 8.C	16ccc^KL)
.	8GJ 8g
16GGJk	16r
8.GGL	8r
.	8G 8c 8e- 8g
16GGJk	.
=||	=||
8.CCL	8r
.	8G^ 8g
16GGJk	.
8.GGL	8r
.	8G 8Bn 8f 8g
16GGJk	.
=	=
8.CCL	8r
.	8G^ 8g
16GGJk	.
8.GGL	8r
.	8G 8c 8e- 8g
16GGJk	.
=	=
8.CCL	8r
.	8G^ 8g
16GGJk	.
8.GGL	8r
.	8G 8Bn 8f 8g
16GGJk	.
=	=
4CC 4C	8c 8e- 8g 8cc
.	8r
4r	4cc^
=||	=||
*E-:	*
16BBB-^KL 16BB-	16d^KL 16a- 16cc
8A- 8B- 8d	8b-
16A-Jk 16B- 16d	16anJk
8A-L 8B- 8d	8b-L
8BBB-J 8BB-	8a-X^J 8dd 8gg
!!linebreak:original
=	=
16EE-^KL 16E-	8.g^L 8.b- 8.ff
8G 8B- 8e-	.
16GJk 16B- 16e-	16ee-Jk
8GL 8B- 8e-	16r
.	8ee-L
8GJ 8B- 8e-	.
.	16cccJk
=	=
16FF^KL	16dd^KL 16bb-
8B- 8d 8a-	8aa-
16B-Jk 16d 16a-	16ccJk
8B-L 8d 8a-	8ddL
8BB-J 8B-	8a-J 8dd 8aa-
=	=
16EE-KL 16E-	8.g^L 8.ee- 8.gg
8G 8B- 8e-	.
16GJk 16B- 16e-	16b-Jk
8GL 8B- 8e-	8r
8GJ 8B- 8e-	16r
.	16dd
=	=
16BBB-^KL 16BB-	16d^KL 16a- 16cc
8A- 8B- 8d	8b-
16A-Jk 16B- 16d	16anJk
8A-L 8B- 8d	8b-L
8BBB-J 8BB-	8a-XJ 8dd 8gg
=	=
16EE-^KL 16E-	8.g^L 8.b- 8.ff
8G 8B- 8e-	.
16GJk 16B- 16e-	16ee-Jk
8G 8B- 8e-	16r
.	8ee-L
8r	.
.	16ddJk
=	=
16CCKL	16ccKL
8c 8e- 8g	8ee-
16cJk 16e- 16g	16ggJk
8cL 8e- 8g	8cc^L 8ccc
8CCJ 8C	8ee-^J 8eee-
!!pagebreak:original
=	=
16GGGKL 16GG	8.gg^L 8.ggg
8G 8Bn 8f	.
16GJk 16B 16f	16dddJk
8GL 8B 8f	4gg 4ggg
8GJ 8B 8f	.
=	=
16BBB-KL 16BB-	16d^KL 16a- 16cc
8A- 8B- 8d	8b-
16A-Jk 16B- 16d	16anJk
8A-L 8B- 8d	8b-L
8BBB-J 8BB-	8a-X^J 8dd 8gg
=	=
16EE-KL 16E-	8.g^L 8.b- 8.ff
8G 8B- 8e-	.
16GJk 16B- 16e-	16ee-Jk
8GL 8B- 8e-	16r
.	8ee-L
8GJ 8B- 8e-	.
.	16cccJk
=	=
16FFKL	16dd^KL 16bb-
8B- 8d 8a-	8aa-
16B-Jk 16d 16a-	16ccJk
8B-L 8d 8a-	8ddL
8BB-J 8B-	8a-J 8dd 8aa-
=	=
16EE-KL 16E-	8.g^L 8.ee- 8.gg
8G 8B- 8e-	.
16GJk 16B- 16e-	16b-Jk
8GL 8B- 8e-	8r
8GJ 8B- 8d-X	8ee-
=	=
16EE-KL 16E-	16g^KL 16dd-X 16ff
8d-X 8e- 8g	8ee-
16d-Jk 16e- 16g	16ddnJk
8d-L 8e- 8g	8ee-L
8EE-J 8E-	8dd-X^J 8gg 8ccc
!!linebreak:original
=	=
16AA-KL	16cc^KL 16ee- 16bb-
8c 8e- 8a-	8aa-
16cJk 16e- 16a-	16ggJk
8cL 8e- 8a-	8aa-L
8cJ 8e- 8a-	8aa-^J
=	=
16BB-KL	16b-KL 16gg
8G 8B- 8e- 8g	8ee- 8bb-
16GJk 16B- 16e- 16g	16ggJk 16ggg
8B-L 8d 8a-	8bb-L 8ggg
8B-J 8d 8a-	8aa-J 8fff
=	=
8GL 8B- 8e- 8g	4gg 4eee-
8BB-J	.
4EE-	4r
==	==
*-	*-
!!!system-decoration: {(s1,s2)}
!!!AGN: Tango
!!!EED: Florian Moldaschl
!!!END: 2025/12/26
!!!ENC: Florian Moldaschl
!!!EEV: 2025/12/26
!!!title: @{OPR}, @{SCT} №@{ONM}